Newaita-dark/.places-default/24/folder-print.svg

<svg xmlns="http://www.w3.org/2000/svg" xmlns:xlink="http://www.w3.org/1999/xlink" width="24px" height="24px" viewBox="0 0 24 24" version="1.1">
<defs>
<linearGradient id="linear0" gradientUnits="userSpaceOnUse" x1="254" y1="233.5" x2="254" y2="254.667007" gradientTransform="matrix(0.0468787,0,0,0.0468787,0,10.07925)">
<stop offset="0" style="stop-color:rgb(0%,0%,0%);stop-opacity:0.275;"/>
<stop offset="1" style="stop-color:rgb(0%,0%,0%);stop-opacity:0;"/>
</linearGradient>
<radialGradient id="radial0" gradientUnits="userSpaceOnUse" cx="450.908997" cy="189.578995" fx="450.908997" fy="189.578995" r="21.167" gradientTransform="matrix(0,-0.0585975,-0.10548,0,40.586251,47.696251)">
<stop offset="0" style="stop-color:rgb(0%,0%,0%);stop-opacity:0.314;"/>
<stop offset="0.222" style="stop-color:rgb(0%,0%,0%);stop-opacity:0.275;"/>
<stop offset="1" style="stop-color:rgb(0%,0%,0%);stop-opacity:0;"/>
</radialGradient>
<radialGradient id="radial1" gradientUnits="userSpaceOnUse" cx="450.908997" cy="189.578995" fx="450.908997" fy="189.578995" r="21.167" gradientTransform="matrix(0,0.0585975,0.10548,0,-16.7715,-5.645625)">
<stop offset="0" style="stop-color:rgb(0%,0%,0%);stop-opacity:0.314;"/>
<stop offset="0.222" style="stop-color:rgb(0%,0%,0%);stop-opacity:0.275;"/>
<stop offset="1" style="stop-color:rgb(0%,0%,0%);stop-opacity:0;"/>
</radialGradient>
<radialGradient id="radial2" gradientUnits="userSpaceOnUse" cx="450.908997" cy="189.578995" fx="450.908997" fy="189.578995" r="21.167" gradientTransform="matrix(0,-0.0585975,0.10548,0,-16.7715,47.696251)">
<stop offset="0" style="stop-color:rgb(0%,0%,0%);stop-opacity:0.314;"/>
<stop offset="0.222" style="stop-color:rgb(0%,0%,0%);stop-opacity:0.275;"/>
<stop offset="1" style="stop-color:rgb(0%,0%,0%);stop-opacity:0;"/>
</radialGradient>
<radialGradient id="radial3" gradientUnits="userSpaceOnUse" cx="450.908997" cy="189.578995" fx="450.908997" fy="189.578995" r="21.167" gradientTransform="matrix(0,0.0585975,-0.10548,0,40.586251,-5.645625)">
<stop offset="0" style="stop-color:rgb(0%,0%,0%);stop-opacity:0.314;"/>
<stop offset="0.222" style="stop-color:rgb(0%,0%,0%);stop-opacity:0.275;"/>
<stop offset="1" style="stop-color:rgb(0%,0%,0%);stop-opacity:0;"/>
</radialGradient>
<linearGradient id="linear1" gradientUnits="userSpaceOnUse" x1="254" y1="-147.5" x2="254" y2="-31.083" gradientTransform="matrix(0.0468787,0,0,0.0468787,0,10.07925)">
<stop offset="0" style="stop-color:rgb(64.313728%,64.313728%,64.313728%);stop-opacity:0;"/>
<stop offset="1" style="stop-color:rgb(100%,100%,100%);stop-opacity:0.196;"/>
</linearGradient>
<linearGradient id="linear2" gradientUnits="userSpaceOnUse" x1="254" y1="233.5" x2="254" y2="-105.167" gradientTransform="matrix(0.0468787,0,0,0.0468787,0,10.07925)">
<stop offset="0" style="stop-color:rgb(34.509805%,34.509805%,34.509805%);stop-opacity:0;"/>
<stop offset="1" style="stop-color:rgb(98.039216%,98.039216%,98.039216%);stop-opacity:0.196;"/>
</linearGradient>
<linearGradient id="linear3" gradientUnits="userSpaceOnUse" x1="254" y1="-147.5" x2="254" y2="233.5" gradientTransform="matrix(0.0468787,0,0,0.0468787,0,10.07925)">
<stop offset="0" style="stop-color:rgb(64.313728%,64.313728%,64.313728%);stop-opacity:0;"/>
<stop offset="1" style="stop-color:rgb(100%,100%,100%);stop-opacity:0.196;"/>
</linearGradient>
</defs>
<g id="surface1">
<path style=" stroke:none;fill-rule:nonzero;fill:url(#linear0);" d="M 2.976562 21.023438 L 20.835938 21.023438 L 20.835938 22.019531 L 2.976562 22.019531 Z M 2.976562 21.023438 "/>
<path style=" stroke:none;fill-rule:nonzero;fill:url(#radial0);" d="M 20.835938 21.023438 L 22.820312 21.023438 L 22.820312 20.035156 L 20.835938 20.035156 Z M 20.835938 21.023438 "/>
<path style=" stroke:none;fill-rule:nonzero;fill:url(#radial1);" d="M 2.976562 21.023438 L 0.992188 21.023438 L 0.992188 22.019531 L 2.976562 22.019531 Z M 2.976562 21.023438 "/>
<path style=" stroke:none;fill-rule:nonzero;fill:url(#radial2);" d="M 2.976562 21.023438 L 0.992188 21.023438 L 0.992188 20.035156 L 2.976562 20.035156 Z M 2.976562 21.023438 "/>
<path style=" stroke:none;fill-rule:nonzero;fill:url(#radial3);" d="M 20.835938 21.023438 L 22.820312 21.023438 L 22.820312 22.019531 L 20.835938 22.019531 Z M 20.835938 21.023438 "/>
<path style=" stroke:none;fill-rule:nonzero;fill:rgb(55.29412%,43.137255%,38.82353%);fill-opacity:1;" d="M 5.457031 3.164062 L 21.582031 3.164062 C 21.84375 3.164062 22.097656 3.269531 22.285156 3.453125 C 22.46875 3.640625 22.574219 3.894531 22.574219 4.15625 L 22.574219 7.878906 C 22.574219 8.425781 22.128906 8.871094 21.582031 8.871094 L 5.457031 8.871094 C 4.910156 8.871094 4.464844 8.425781 4.464844 7.878906 L 4.464844 4.15625 C 4.464844 3.609375 4.910156 3.164062 5.457031 3.164062 Z M 5.457031 3.164062 "/>
<path style=" stroke:none;fill-rule:nonzero;fill:url(#linear1);" d="M 5.457031 3.164062 L 21.582031 3.164062 C 21.84375 3.164062 22.097656 3.269531 22.285156 3.453125 C 22.46875 3.640625 22.574219 3.894531 22.574219 4.15625 L 22.574219 7.878906 C 22.574219 8.425781 22.128906 8.871094 21.582031 8.871094 L 5.457031 8.871094 C 4.910156 8.871094 4.464844 8.425781 4.464844 7.878906 L 4.464844 4.15625 C 4.464844 3.609375 4.910156 3.164062 5.457031 3.164062 Z M 5.457031 3.164062 "/>
<path style=" stroke:none;fill-rule:nonzero;fill:rgb(90.196079%,90.196079%,90.196079%);fill-opacity:0.588;" d="M 5.457031 3.164062 C 5.195312 3.164062 4.941406 3.269531 4.753906 3.453125 C 4.570312 3.640625 4.464844 3.894531 4.464844 4.15625 L 4.464844 4.28125 C 4.464844 4.015625 4.570312 3.765625 4.753906 3.578125 C 4.941406 3.390625 5.195312 3.289062 5.457031 3.289062 L 21.582031 3.289062 C 21.84375 3.289062 22.097656 3.390625 22.285156 3.578125 C 22.46875 3.765625 22.574219 4.015625 22.574219 4.28125 L 22.574219 4.15625 C 22.574219 3.894531 22.472656 3.640625 22.285156 3.453125 C 22.097656 3.265625 21.84375 3.164062 21.582031 3.164062 Z M 5.457031 3.164062 "/>
<path style=" stroke:none;fill-rule:nonzero;fill:rgb(12.941177%,12.941177%,12.941177%);fill-opacity:1;" d="M 5.457031 3.09375 C 4.871094 3.09375 4.394531 3.570312 4.394531 4.15625 L 4.394531 7.878906 C 4.394531 8.160156 4.507812 8.429688 4.707031 8.628906 C 4.90625 8.828125 5.175781 8.941406 5.457031 8.941406 L 21.582031 8.941406 C 21.863281 8.941406 22.132812 8.828125 22.332031 8.628906 C 22.53125 8.429688 22.644531 8.160156 22.644531 7.878906 L 22.644531 4.15625 C 22.644531 3.570312 22.167969 3.09375 21.582031 3.09375 Z M 5.457031 3.234375 L 21.582031 3.234375 C 21.828125 3.234375 22.0625 3.332031 22.234375 3.503906 C 22.40625 3.675781 22.503906 3.910156 22.503906 4.15625 L 22.503906 7.878906 C 22.503906 8.121094 22.40625 8.359375 22.234375 8.53125 C 22.0625 8.703125 21.824219 8.800781 21.582031 8.800781 L 5.457031 8.800781 C 5.214844 8.800781 4.976562 8.703125 4.804688 8.53125 C 4.632812 8.359375 4.535156 8.121094 4.535156 7.878906 L 4.535156 4.15625 C 4.535156 3.914062 4.632812 3.675781 4.804688 3.503906 C 4.976562 3.332031 5.210938 3.234375 5.457031 3.234375 Z M 5.457031 3.234375 "/>
<path style=" stroke:none;fill-rule:nonzero;fill:rgb(73.725492%,66.666669%,64.313728%);fill-opacity:1;" d="M 1.984375 5.148438 C 1.722656 5.148438 1.46875 5.253906 1.28125 5.4375 C 1.097656 5.625 0.992188 5.878906 0.992188 6.140625 L 0.992188 20.035156 C 0.992188 20.296875 1.097656 20.550781 1.28125 20.734375 C 1.46875 20.921875 1.722656 21.023438 1.984375 21.023438 L 21.832031 21.023438 C 22.09375 21.023438 22.347656 20.921875 22.53125 20.734375 C 22.71875 20.550781 22.824219 20.296875 22.820312 20.035156 L 22.820312 7.628906 L 9.425781 7.628906 C 9.164062 7.628906 8.910156 7.523438 8.722656 7.339844 C 8.539062 7.152344 8.433594 6.898438 8.433594 6.636719 L 8.433594 5.148438 Z M 1.984375 5.148438 "/>
<path style=" stroke:none;fill-rule:nonzero;fill:url(#linear2);" d="M 1.984375 5.148438 C 1.722656 5.148438 1.46875 5.253906 1.28125 5.4375 C 1.097656 5.625 0.992188 5.878906 0.992188 6.140625 L 0.992188 20.035156 C 0.992188 20.296875 1.097656 20.550781 1.28125 20.734375 C 1.46875 20.921875 1.722656 21.023438 1.984375 21.023438 L 21.832031 21.023438 C 22.09375 21.023438 22.347656 20.921875 22.53125 20.734375 C 22.71875 20.550781 22.824219 20.296875 22.820312 20.035156 L 22.820312 7.628906 L 9.425781 7.628906 C 9.164062 7.628906 8.910156 7.523438 8.722656 7.339844 C 8.539062 7.152344 8.433594 6.898438 8.433594 6.636719 L 8.433594 5.148438 Z M 1.984375 5.148438 "/>
<path style=" stroke:none;fill-rule:nonzero;fill:rgb(0%,0%,0%);fill-opacity:0.196;" d="M 1.984375 21.023438 C 1.722656 21.023438 1.46875 20.921875 1.28125 20.734375 C 1.097656 20.550781 0.992188 20.296875 0.992188 20.035156 L 0.992188 19.910156 C 0.992188 20.171875 1.097656 20.425781 1.28125 20.613281 C 1.46875 20.796875 1.722656 20.902344 1.984375 20.902344 L 21.832031 20.902344 C 22.09375 20.902344 22.347656 20.796875 22.53125 20.609375 C 22.71875 20.425781 22.824219 20.171875 22.820312 19.910156 L 22.820312 20.035156 C 22.824219 20.296875 22.71875 20.550781 22.53125 20.734375 C 22.347656 20.921875 22.09375 21.023438 21.832031 21.023438 Z M 1.984375 21.023438 "/>
<path style=" stroke:none;fill-rule:nonzero;fill:rgb(90.196079%,90.196079%,90.196079%);fill-opacity:0.937;" d="M 1.984375 5.148438 C 1.722656 5.148438 1.46875 5.253906 1.28125 5.4375 C 1.097656 5.625 0.992188 5.878906 0.992188 6.140625 L 0.992188 6.265625 C 0.992188 6 1.097656 5.75 1.28125 5.5625 C 1.46875 5.375 1.722656 5.273438 1.984375 5.273438 L 8.433594 5.273438 L 8.433594 5.148438 Z M 9.363281 7.691406 C 9.101562 7.691406 8.847656 7.589844 8.664062 7.402344 C 8.476562 7.214844 8.371094 6.960938 8.371094 6.699219 L 8.371094 6.574219 C 8.371094 6.839844 8.476562 7.089844 8.664062 7.277344 C 8.847656 7.464844 9.101562 7.566406 9.363281 7.566406 L 22.820312 7.566406 L 22.820312 7.691406 Z M 9.363281 7.691406 "/>
<path style=" stroke:none;fill-rule:nonzero;fill:rgb(12.941177%,12.941177%,12.941177%);fill-opacity:1;" d="M 1.984375 5.078125 C 1.703125 5.078125 1.433594 5.191406 1.234375 5.390625 C 1.035156 5.589844 0.921875 5.859375 0.921875 6.140625 L 0.921875 20.035156 C 0.921875 20.316406 1.035156 20.585938 1.234375 20.785156 C 1.433594 20.984375 1.703125 21.09375 1.984375 21.09375 L 21.832031 21.09375 C 22.113281 21.09375 22.382812 20.984375 22.582031 20.785156 C 22.78125 20.585938 22.894531 20.316406 22.894531 20.035156 L 22.894531 7.488281 L 9.425781 7.488281 C 9.183594 7.488281 8.945312 7.394531 8.773438 7.21875 C 8.601562 7.046875 8.503906 6.8125 8.503906 6.566406 L 8.503906 5.078125 Z M 1.984375 5.21875 L 8.363281 5.21875 L 8.363281 6.566406 C 8.363281 6.847656 8.476562 7.117188 8.675781 7.316406 C 8.875 7.515625 9.144531 7.628906 9.425781 7.628906 L 22.753906 7.628906 L 22.753906 20.035156 C 22.753906 20.277344 22.65625 20.511719 22.484375 20.6875 C 22.308594 20.859375 22.074219 20.957031 21.832031 20.953125 L 1.984375 20.953125 C 1.738281 20.957031 1.503906 20.859375 1.332031 20.6875 C 1.160156 20.511719 1.0625 20.277344 1.0625 20.035156 L 1.0625 6.140625 C 1.0625 5.894531 1.160156 5.660156 1.332031 5.488281 C 1.503906 5.316406 1.738281 5.21875 1.984375 5.21875 Z M 1.984375 5.21875 "/>
<path style=" stroke:none;fill-rule:nonzero;fill:rgb(55.29412%,43.137255%,38.82353%);fill-opacity:1;" d="M 9.921875 9.621094 C 9.789062 9.621094 9.664062 9.675781 9.570312 9.769531 C 9.476562 9.859375 9.425781 9.988281 9.425781 10.117188 L 9.425781 14.085938 L 14.386719 14.085938 L 14.386719 10.117188 C 14.386719 9.988281 14.335938 9.859375 14.242188 9.769531 C 14.148438 9.675781 14.023438 9.621094 13.894531 9.621094 Z M 9.179688 14.582031 C 8.980469 14.582031 8.792969 14.660156 8.652344 14.800781 C 8.511719 14.941406 8.433594 15.128906 8.433594 15.328125 L 8.433594 16.320312 C 8.433594 16.734375 8.765625 17.0625 9.179688 17.0625 L 9.425781 17.0625 L 9.425781 17.246094 C 9.425781 17.421875 9.648438 17.558594 9.921875 17.558594 L 13.894531 17.558594 C 14.167969 17.558594 14.386719 17.421875 14.386719 17.246094 L 14.386719 17.0625 L 14.636719 17.0625 C 14.835938 17.066406 15.023438 16.984375 15.164062 16.847656 C 15.304688 16.707031 15.382812 16.515625 15.382812 16.320312 L 15.382812 15.328125 C 15.382812 15.128906 15.304688 14.941406 15.164062 14.800781 C 15.023438 14.660156 14.835938 14.582031 14.636719 14.585938 Z M 9.179688 14.582031 "/>
<path style=" stroke:none;fill-rule:nonzero;fill:url(#linear3);" d="M 9.921875 9.621094 C 9.789062 9.621094 9.664062 9.675781 9.570312 9.769531 C 9.476562 9.859375 9.425781 9.988281 9.425781 10.117188 L 9.425781 14.085938 L 14.386719 14.085938 L 14.386719 10.117188 C 14.386719 9.988281 14.335938 9.859375 14.242188 9.769531 C 14.148438 9.675781 14.023438 9.621094 13.894531 9.621094 Z M 9.179688 14.582031 C 8.980469 14.582031 8.792969 14.660156 8.652344 14.800781 C 8.511719 14.941406 8.433594 15.128906 8.433594 15.328125 L 8.433594 16.320312 C 8.433594 16.734375 8.765625 17.0625 9.179688 17.0625 L 9.425781 17.0625 L 9.425781 17.246094 C 9.425781 17.421875 9.648438 17.558594 9.921875 17.558594 L 13.894531 17.558594 C 14.167969 17.558594 14.386719 17.421875 14.386719 17.246094 L 14.386719 17.0625 L 14.636719 17.0625 C 14.835938 17.066406 15.023438 16.984375 15.164062 16.847656 C 15.304688 16.707031 15.382812 16.515625 15.382812 16.320312 L 15.382812 15.328125 C 15.382812 15.128906 15.304688 14.941406 15.164062 14.800781 C 15.023438 14.660156 14.835938 14.582031 14.636719 14.585938 Z M 9.179688 14.582031 "/>
<path style=" stroke:none;fill-rule:nonzero;fill:rgb(12.941177%,12.941177%,12.941177%);fill-opacity:1;" d="M 9.921875 9.550781 C 9.609375 9.550781 9.355469 9.804688 9.355469 10.117188 L 9.355469 14.15625 L 14.457031 14.15625 L 14.457031 10.117188 C 14.457031 9.804688 14.207031 9.554688 13.894531 9.550781 Z M 9.921875 9.691406 L 13.894531 9.691406 C 14.003906 9.691406 14.113281 9.738281 14.195312 9.816406 C 14.273438 9.898438 14.316406 10.007812 14.316406 10.117188 L 14.316406 14.015625 L 9.496094 14.015625 L 9.496094 10.117188 C 9.496094 10.003906 9.539062 9.898438 9.621094 9.816406 C 9.699219 9.738281 9.808594 9.691406 9.921875 9.691406 Z M 9.179688 14.511719 C 8.730469 14.511719 8.363281 14.878906 8.363281 15.328125 L 8.363281 16.320312 C 8.363281 16.535156 8.449219 16.742188 8.601562 16.894531 C 8.753906 17.046875 8.960938 17.132812 9.179688 17.132812 L 9.355469 17.132812 L 9.355469 17.246094 C 9.355469 17.363281 9.429688 17.464844 9.535156 17.527344 C 9.636719 17.59375 9.773438 17.632812 9.921875 17.632812 L 13.894531 17.632812 C 14.042969 17.632812 14.175781 17.59375 14.28125 17.527344 C 14.382812 17.464844 14.457031 17.363281 14.457031 17.246094 L 14.457031 17.132812 L 14.636719 17.132812 C 14.851562 17.132812 15.058594 17.050781 15.210938 16.894531 C 15.367188 16.742188 15.453125 16.535156 15.449219 16.320312 L 15.449219 15.328125 C 15.449219 14.878906 15.085938 14.511719 14.636719 14.511719 Z M 9.179688 14.652344 L 14.636719 14.652344 C 14.816406 14.652344 14.988281 14.722656 15.113281 14.851562 C 15.238281 14.976562 15.3125 15.148438 15.308594 15.328125 L 15.308594 16.320312 C 15.308594 16.695312 15.011719 16.992188 14.636719 16.992188 L 14.316406 16.992188 L 14.316406 17.246094 C 14.316406 17.304688 14.28125 17.363281 14.207031 17.410156 C 14.128906 17.457031 14.015625 17.492188 13.890625 17.492188 L 9.921875 17.492188 C 9.796875 17.492188 9.683594 17.457031 9.609375 17.410156 C 9.53125 17.359375 9.496094 17.304688 9.496094 17.246094 L 9.496094 16.992188 L 9.179688 16.992188 C 8.804688 16.992188 8.503906 16.695312 8.503906 16.320312 L 8.503906 15.328125 C 8.503906 14.953125 8.804688 14.652344 9.179688 14.652344 Z M 9.179688 14.652344 "/>
</g>
</svg>

<svg xmlns="http://www.w3.org/2000/svg" width="32" height="32" viewBox="0 0 24 24"><defs><linearGradient id="a" gradientUnits="userSpaceOnUse" x1="254" y1="233.5" x2="254" y2="254.667" gradientTransform="matrix(.04688 0 0 .04688 0 10.08)"><stop offset="0" stop-opacity=".275"/><stop offset="1" stop-opacity="0"/></linearGradient><radialGradient id="b" gradientUnits="userSpaceOnUse" cx="450.909" cy="189.579" fx="450.909" fy="189.579" r="21.167" gradientTransform="matrix(0 -.0586 -.10548 0 40.586 47.697)"><stop offset="0" stop-opacity=".314"/><stop offset=".222" stop-opacity=".275"/><stop offset="1" stop-opacity="0"/></radialGradient><radialGradient id="c" gradientUnits="userSpaceOnUse" cx="450.909" cy="189.579" fx="450.909" fy="189.579" r="21.167" gradientTransform="matrix(0 .0586 .10548 0 -16.772 -5.646)"><stop offset="0" stop-opacity=".314"/><stop offset=".222" stop-opacity=".275"/><stop offset="1" stop-opacity="0"/></radialGradient><radialGradient id="d" gradientUnits="userSpaceOnUse" cx="450.909" cy="189.579" fx="450.909" fy="189.579" r="21.167" gradientTransform="matrix(0 -.0586 .10548 0 -16.772 47.697)"><stop offset="0" stop-opacity=".314"/><stop offset=".222" stop-opacity=".275"/><stop offset="1" stop-opacity="0"/></radialGradient><radialGradient id="e" gradientUnits="userSpaceOnUse" cx="450.909" cy="189.579" fx="450.909" fy="189.579" r="21.167" gradientTransform="matrix(0 .0586 -.10548 0 40.586 -5.646)"><stop offset="0" stop-opacity=".314"/><stop offset=".222" stop-opacity=".275"/><stop offset="1" stop-opacity="0"/></radialGradient><linearGradient id="f" gradientUnits="userSpaceOnUse" x1="254" y1="-147.5" x2="254" y2="-31.083" gradientTransform="matrix(.04688 0 0 .04688 0 10.08)"><stop offset="0" stop-color="#a4a4a4" stop-opacity="0"/><stop offset="1" stop-color="#fff" stop-opacity=".196"/></linearGradient><linearGradient id="g" gradientUnits="userSpaceOnUse" x1="254" y1="233.5" x2="254" y2="-105.167" gradientTransform="matrix(.04688 0 0 .04688 0 10.08)"><stop offset="0" stop-color="#585858" stop-opacity="0"/><stop offset="1" stop-color="#fafafa" stop-opacity=".196"/></linearGradient><linearGradient id="h" gradientUnits="userSpaceOnUse" x1="254" y1="-147.5" x2="254" y2="233.5" gradientTransform="matrix(.04688 0 0 .04688 0 10.08)"><stop offset="0" stop-color="#a4a4a4" stop-opacity="0"/><stop offset="1" stop-color="#fff" stop-opacity=".196"/></linearGradient></defs><path d="M2.977 21.027H20.84v.993H2.977zm0 0" fill="url(#a)"/><path d="M20.84 21.027h1.984v-.996H20.84zm0 0" fill="url(#b)"/><path d="M2.977 21.027H.992v.993h1.985zm0 0" fill="url(#c)"/><path d="M2.977 21.027H.992v-.996h1.985zm0 0" fill="url(#d)"/><path d="M20.84 21.027h1.984v.993H20.84zm0 0" fill="url(#e)"/><path d="M5.457 3.164h16.125c.547 0 .992.445.992.992V7.88a.994.994 0 0 1-.992.992H5.457a.994.994 0 0 1-.992-.992V4.156c0-.547.445-.992.992-.992zm0 0" fill="#8d6e63"/><path d="M5.457 3.164h16.125c.547 0 .992.445.992.992V7.88a.994.994 0 0 1-.992.992H5.457a.994.994 0 0 1-.992-.992V4.156c0-.547.445-.992.992-.992zm0 0" fill="url(#f)"/><path d="M5.457 3.164a.989.989 0 0 0-.992.992v.125c0-.55.441-.992.992-.992h16.125c.55 0 .992.441.992.992v-.125a.989.989 0 0 0-.992-.992zm0 0" fill="#e6e6e6" fill-opacity=".588"/><path d="M5.457 3.094c-.586 0-1.062.476-1.062 1.062V7.88c0 .586.476 1.062 1.062 1.062h16.125c.586 0 1.063-.476 1.063-1.062V4.156c0-.586-.477-1.062-1.063-1.062zm0 .14h16.125c.512 0 .922.41.922.922V7.88c0 .512-.41.922-.922.922H5.457a.919.919 0 0 1-.922-.922V4.156c0-.511.41-.922.922-.922zm0 0" fill="#212121"/><path d="M1.984 5.148a.989.989 0 0 0-.992.993v13.89c0 .551.442.996.992.996h19.848a.994.994 0 0 0 .992-.996V7.63H9.426a.991.991 0 0 1-.992-.992V5.148zm0 0" fill="#bcaaa4"/><path d="M1.984 5.148a.989.989 0 0 0-.992.993v13.89c0 .551.442.996.992.996h19.848a.994.994 0 0 0 .992-.996V7.63H9.426a.991.991 0 0 1-.992-.992V5.148zm0 0" fill="url(#g)"/><path d="M1.984 21.027a.992.992 0 0 1-.992-.996v-.12c0 .546.442.991.992.991h19.848a.994.994 0 0 0 .992-.992v.121c0 .551-.445.996-.992.996zm0 0" fill-opacity=".196"/><path d="M1.984 5.148a.989.989 0 0 0-.992.993v.125c0-.551.442-.993.992-.993h6.45v-.125zm0 0M9.363 7.691a.991.991 0 0 1-.992-.992v-.125c0 .551.445.996.992.992h13.461v.125zm0 0" fill="#e6e6e6" fill-opacity=".937"/><path d="M1.984 5.078c-.586 0-1.062.477-1.062 1.063v13.89c0 .59.476 1.067 1.062 1.067h19.848c.586 0 1.063-.477 1.063-1.067V7.488H9.425a.919.919 0 0 1-.921-.922V5.078zm0 .14h6.38v1.348c0 .59.476 1.063 1.062 1.063h13.328V20.03a.92.92 0 0 1-.922.926H1.984a.92.92 0 0 1-.921-.926V6.141c0-.512.41-.922.921-.922zm0 0" fill="#212121"/><path d="M9.922 9.621a.497.497 0 0 0-.496.496v3.969h4.96v-3.969a.494.494 0 0 0-.495-.496zm-.742 4.961a.744.744 0 0 0-.746.746v.992c0 .414.332.746.746.746h.246v.18c0 .176.222.317.496.317h3.969c.277 0 .496-.141.496-.317v-.18h.25c.41 0 .742-.332.742-.746v-.992a.743.743 0 0 0-.742-.746zm0 0" fill="#8d6e63"/><path d="M9.922 9.621a.497.497 0 0 0-.496.496v3.969h4.96v-3.969a.494.494 0 0 0-.495-.496zm-.742 4.961a.744.744 0 0 0-.746.746v.992c0 .414.332.746.746.746h.246v.18c0 .176.222.317.496.317h3.969c.277 0 .496-.141.496-.317v-.18h.25c.41 0 .742-.332.742-.746v-.992a.743.743 0 0 0-.742-.746zm0 0" fill="url(#h)"/><path d="M9.922 9.55a.567.567 0 0 0-.567.567v4.04h5.102v-4.04a.567.567 0 0 0-.566-.566zm0 .141h3.969c.238 0 .425.192.425.426v3.899h-4.82v-3.899c0-.234.191-.426.426-.426zm-.742 4.82a.819.819 0 0 0-.817.817v.992c0 .45.367.817.817.817h.175v.11c0 .116.075.218.18.28a.714.714 0 0 0 .387.106h3.969c.152 0 .285-.04.39-.106.102-.062.176-.164.176-.28v-.11h.18c.449 0 .812-.367.812-.817v-.992a.815.815 0 0 0-.812-.816zm0 .141h5.457c.375 0 .672.301.672.676v.992a.67.67 0 0 1-.672.676h-.32v.25c0 .059-.036.117-.11.164a.63.63 0 0 1-.316.082H9.92a.604.604 0 0 1-.312-.082c-.074-.047-.113-.105-.113-.164v-.25H9.18a.674.674 0 0 1-.676-.676v-.992c0-.375.3-.676.676-.676zm0 0" fill="#212121"/></svg>
